X: 1982
T: When I Went To Germany
B: australian traditional tunes wiki
M:3/4
L:1/8
R: Waltz
Q: 1/4=100
K:G
V:1 
dc|:"G"B2d2dB|G2B2B2|D2G2B2|"D7"c4c2|"C"c2e2e2|
"D7"A2d2d2|1"G"D2G2B2|"D7"d4dc:|2D2E2F2|"G"G4Bc||
|:"G"d2g2g2|g2d2B2|"C"c2e2e2|e4e2|"D7"d2f2f2|f2d2f2|"G"a2g2g2|1g2B2c2:|2g4||
% abcbook-tune_id 6342d5be8c0d622e587947fc


% abcbook-boost 0
% abcbook-tablature 
% abcbook-transpose 
% abcbook-lastupdated 1665324492348
% abcbook-soundfonts 
% abcbook-repeats 1
% NFF Book 2007

